images/truck.svg

<svg width="64" height="64" viewBox="0 0 64 64" fill="none" xmlns="http://www.w3.org/2000/svg">
<g filter="url(#filter0_ii_300_1207)">
<circle cx="32" cy="32" r="32" fill="url(#paint0_linear_300_1207)"/>
</g>
<g clip-path="url(#clip0_300_1207)">
<path d="M42.0794 41.5195C41.1532 41.5195 40.3994 42.2733 40.3994 43.1995C40.3994 44.1258 41.1532 44.8795 42.0794 44.8795C43.0057 44.8795 43.7594 44.1258 43.7594 43.1995C43.7594 42.2733 43.0057 41.5195 42.0794 41.5195ZM42.0794 43.7595C41.7703 43.7595 41.5194 43.5087 41.5194 43.1995C41.5194 42.8904 41.7703 42.6395 42.0794 42.6395C42.3885 42.6395 42.6394 42.8904 42.6394 43.1995C42.6394 43.5087 42.3885 43.7595 42.0794 43.7595Z" fill="white"/>
<path d="M24.1595 41.5195C23.2333 41.5195 22.4795 42.2733 22.4795 43.1995C22.4795 44.1258 23.2333 44.8795 24.1595 44.8795C25.0857 44.8795 25.8395 44.1258 25.8395 43.1995C25.8395 42.2733 25.0857 41.5195 24.1595 41.5195ZM24.1595 43.7595C23.8504 43.7595 23.5995 43.5087 23.5995 43.1995C23.5995 42.8904 23.8504 42.6395 24.1595 42.6395C24.4686 42.6395 24.7195 42.8904 24.7195 43.1995C24.7195 43.5087 24.4686 43.7595 24.1595 43.7595Z" fill="white"/>
<path d="M47.8118 34.2389L47.0648 33.8654L46.3037 29.2991C46.078 27.9428 44.916 26.9589 43.5418 26.9589H37.5996C36.6885 26.9589 35.8855 27.403 35.3742 28.0789H33.6796V22.4789H30.3196V16.8789H22.4796V22.4789H19.1196V28.0789H15.7596V33.6789C15.142 33.6789 14.6396 34.1812 14.6396 34.7989V35.9189C14.6396 36.5366 15.142 37.0389 15.7596 37.0389V42.0789C15.7596 43.0051 16.5134 43.7589 17.4396 43.7589H20.2844C20.5577 45.6551 22.189 47.1189 24.1596 47.1189C26.1303 47.1189 27.7616 45.6551 28.0348 43.7589H38.2044C38.4777 45.6551 40.109 47.1189 42.0796 47.1189C44.0503 47.1189 45.6816 45.6551 45.9548 43.7589H47.6796C48.6059 43.7589 49.3596 43.0051 49.3596 42.0789V36.7432C49.3596 35.6759 48.7666 34.7171 47.8118 34.2389ZM48.2396 39.4928L47.1196 38.9328V38.1589H48.2396V39.4928ZM25.8396 29.1989H26.9596V30.3189H25.8396V29.1989ZM28.0796 31.4389V29.1989H29.1996V33.6789H23.5996V29.1989H24.7196V31.4389H28.0796ZM34.7996 33.6789H30.3196V29.1989H31.4396V31.4389H34.7996V33.6789ZM34.7996 29.7589V30.3189H32.5596V29.1989H34.8562C34.8193 29.3798 34.7996 29.5674 34.7996 29.7589ZM32.5596 28.0789H30.3196H29.1996H26.9596V23.5989H28.0796V25.8389H31.4396V23.5989H32.5596V28.0789ZM29.1996 23.5989H30.3196V24.7189H29.1996V23.5989ZM25.8396 17.9989H26.9596V19.1189H25.8396V17.9989ZM23.5996 17.9989H24.7196V20.2389H28.0796V17.9989H29.1996V22.4789H26.9596H25.8396H23.5996V17.9989ZM22.4796 23.5989H23.5996V24.7189H22.4796V23.5989ZM20.2396 23.5989H21.3596V25.8389H24.7196V23.5989H25.8396V28.0789H23.5996H22.4796H20.2396V23.5989ZM19.1196 29.1989H20.2396V30.3189H19.1196V29.1989ZM16.8796 29.1989H17.9996V31.4389H21.3596V29.1989H22.4796V33.6789H16.8796V29.1989ZM15.7596 34.7989H34.7996V35.9189H15.7596V34.7989ZM16.8796 39.2789H18.9623L18.6823 40.3989H16.8796V39.2789ZM16.8796 42.0789V41.5189H19.557L20.397 38.1589H16.8796V37.0389H34.7996V42.6389H28.0348C27.7616 40.7427 26.1303 39.2789 24.1596 39.2789C22.189 39.2789 20.5577 40.7427 20.2844 42.6389H17.4396C17.1305 42.6389 16.8796 42.388 16.8796 42.0789ZM24.1596 45.9989C22.6157 45.9989 21.3596 44.7428 21.3596 43.1989C21.3596 41.655 22.6157 40.3989 24.1596 40.3989C25.7036 40.3989 26.9596 41.655 26.9596 43.1989C26.9596 44.7428 25.7036 45.9989 24.1596 45.9989ZM41.5196 33.6789H43.7596V34.7989H43.1996H42.6396C42.022 34.7989 41.5196 34.2966 41.5196 33.6789ZM41.5196 32.5589C40.902 32.5589 40.3996 33.0612 40.3996 33.6789C40.3996 34.0888 40.5184 34.4679 40.711 34.7989H38.1596V30.3189H43.2254L43.6448 32.5589H41.5196ZM38.1596 35.9189H42.6396H43.1996H43.7596V39.6625C43.2495 39.4195 42.6811 39.2789 42.0796 39.2789C40.109 39.2789 38.4777 40.7427 38.2044 42.6389H38.1596V35.9189ZM42.0796 45.9989C40.5357 45.9989 39.2796 44.7428 39.2796 43.1989C39.2796 41.655 40.5357 40.3989 42.0796 40.3989C43.6236 40.3989 44.8796 41.655 44.8796 43.1989C44.8796 44.7428 43.6236 45.9989 42.0796 45.9989ZM47.6796 42.6389H45.9548C45.8339 41.7978 45.4475 41.0418 44.8796 40.4611V33.1189L44.3269 30.1139C44.2284 29.5842 43.7652 29.1989 43.226 29.1989H38.1596C37.542 29.1989 37.0396 29.7012 37.0396 30.3189V42.6389H35.9196V29.7589C35.9196 28.8327 36.6734 28.0789 37.5996 28.0789H43.5418C44.3667 28.0789 45.0633 28.6697 45.1988 29.4828L46.054 34.6124L47.3106 35.2407C47.8835 35.5275 48.2396 36.1031 48.2396 36.7432V37.0389H45.9996V39.625L48.2396 40.745V42.0789C48.2396 42.388 47.9888 42.6389 47.6796 42.6389Z" fill="white"/>
</g>
<defs>
<filter id="filter0_ii_300_1207" x="-14" y="0" width="94" height="65" filterUnits="userSpaceOnUse" color-interpolation-filters="sRGB">
<feFlood flood-opacity="0" result="BackgroundImageFix"/>
<feBlend mode="normal" in="SourceGraphic" in2="BackgroundImageFix" result="shape"/>
<feColorMatrix in="SourceAlpha" type="matrix" values="0 0 0 0 0 0 0 0 0 0 0 0 0 0 0 0 0 0 127 0" result="hardAlpha"/>
<feOffset dx="-14"/>
<feGaussianBlur stdDeviation="8.5"/>
<feComposite in2="hardAlpha" operator="arithmetic" k2="-1" k3="1"/>
<feColorMatrix type="matrix" values="0 0 0 0 0.104167 0 0 0 0 0.066116 0 0 0 0 0.030816 0 0 0 0.12 0"/>
<feBlend mode="normal" in2="shape" result="effect1_innerShadow_300_1207"/>
<feColorMatrix in="SourceAlpha" type="matrix" values="0 0 0 0 0 0 0 0 0 0 0 0 0 0 0 0 0 0 127 0" result="hardAlpha"/>
<feMorphology radius="2" operator="erode" in="SourceAlpha" result="effect2_innerShadow_300_1207"/>
<feOffset dx="16" dy="1"/>
<feGaussianBlur stdDeviation="15.5"/>
<feComposite in2="hardAlpha" operator="arithmetic" k2="-1" k3="1"/>
<feColorMatrix type="matrix" values="0 0 0 0 1 0 0 0 0 1 0 0 0 0 1 0 0 0 0.4 0"/>
<feBlend mode="normal" in2="effect1_innerShadow_300_1207" result="effect2_innerShadow_300_1207"/>
</filter>
<linearGradient id="paint0_linear_300_1207" x1="3.7033e-07" y1="12" x2="66.1605" y2="16.6775" gradientUnits="userSpaceOnUse">
<stop stop-color="#30C917"/>
<stop offset="1" stop-color="#279A13"/>
</linearGradient>
<clipPath id="clip0_300_1207">
<rect width="35.84" height="35.84" fill="white" transform="translate(14.0801 14.0781)"/>
</clipPath>
</defs>
</svg>

<svg xmlns="http://www.w3.org/2000/svg" width="64" height="64" fill="none"><g filter="url(#a)"><circle cx="32" cy="32" r="32" fill="url(#b)"/></g><g fill="#fff" clip-path="url(#c)"><path d="M42.08 41.52c-.927 0-1.68.753-1.68 1.68s.753 1.68 1.68 1.68 1.68-.754 1.68-1.68c0-.927-.754-1.68-1.68-1.68m0 2.24a.56.56 0 1 1 0-1.12.56.56 0 0 1 0 1.12M24.16 41.52c-.927 0-1.68.753-1.68 1.68s.753 1.68 1.68 1.68 1.68-.754 1.68-1.68c0-.927-.754-1.68-1.68-1.68m0 2.24a.56.56 0 1 1 0-1.12.56.56 0 0 1 0 1.12"/><path d="m47.812 34.239-.747-.374-.761-4.566a2.79 2.79 0 0 0-2.762-2.34H37.6c-.912 0-1.715.444-2.226 1.12H33.68v-5.6h-3.36v-5.6h-7.84v5.6h-3.36v5.6h-3.36v5.6c-.618 0-1.12.502-1.12 1.12v1.12c0 .618.502 1.12 1.12 1.12v5.04c0 .926.753 1.68 1.68 1.68h2.844a3.92 3.92 0 0 0 3.876 3.36 3.92 3.92 0 0 0 3.875-3.36h10.17a3.92 3.92 0 0 0 3.875 3.36 3.92 3.92 0 0 0 3.875-3.36h1.725c.926 0 1.68-.754 1.68-1.68v-5.336a2.79 2.79 0 0 0-1.548-2.504m.428 5.254-1.12-.56v-.774h1.12zm-22.4-10.294h1.12v1.12h-1.12zm2.24 2.24v-2.24h1.12v4.48h-5.6v-4.48h1.12v2.24zm6.72 2.24h-4.48v-4.48h1.12v2.24h3.36zm0-3.92v.56h-2.24v-1.12h2.296q-.056.271-.056.56m-2.24-1.68h-5.6v-4.48h1.12v2.24h3.36v-2.24h1.12zm-3.36-4.48h1.12v1.12H29.2zm-3.36-5.6h1.12v1.12h-1.12zm-2.24 0h1.12v2.24h3.36v-2.24h1.12v4.48h-5.6zm-1.12 5.6h1.12v1.12h-1.12zm-2.24 0h1.12v2.24h3.36v-2.24h1.12v4.48h-5.6zm-1.12 5.6h1.12v1.12h-1.12zm-2.24 0H18v2.24h3.36v-2.24h1.12v4.48h-5.6zm-1.12 5.6H34.8v1.12H15.76zm1.12 4.48h2.082l-.28 1.12H16.88zm0 2.8v-.56h2.677l.84-3.36H16.88v-1.12H34.8v5.6h-6.765a3.92 3.92 0 0 0-3.875-3.36 3.92 3.92 0 0 0-3.876 3.36H17.44a.56.56 0 0 1-.56-.56m7.28 3.92a2.803 2.803 0 0 1-2.8-2.8c0-1.544 1.256-2.8 2.8-2.8s2.8 1.256 2.8 2.8-1.256 2.8-2.8 2.8m17.36-12.32h2.24v1.12h-1.12c-.618 0-1.12-.502-1.12-1.12m0-1.12c-.618 0-1.12.502-1.12 1.12 0 .41.118.789.311 1.12H38.16v-4.48h5.065l.42 2.24zm-3.36 3.36h5.6v3.744a3.9 3.9 0 0 0-1.68-.384 3.92 3.92 0 0 0-3.876 3.36h-.044zm3.92 10.08a2.803 2.803 0 0 1-2.8-2.8c0-1.544 1.256-2.8 2.8-2.8s2.8 1.256 2.8 2.8-1.256 2.8-2.8 2.8m5.6-3.36h-1.725a3.9 3.9 0 0 0-1.075-2.178V33.12l-.553-3.005a1.12 1.12 0 0 0-1.101-.915H38.16c-.618 0-1.12.502-1.12 1.12v12.32h-1.12v-12.88c0-.926.753-1.68 1.68-1.68h5.942c.825 0 1.521.59 1.657 1.404l.855 5.13 1.257.628c.572.287.929.862.929 1.502v.296H46v2.586l2.24 1.12v1.334c0 .309-.251.56-.56.56"/></g><defs><linearGradient id="b" x1="0" x2="66.16" y1="12" y2="16.677" gradientUnits="userSpaceOnUse"><stop stop-color="#30C917"/><stop offset="1" stop-color="#279A13"/></linearGradient><clipPath id="c"><path fill="#fff" d="M14.08 14.078h35.84v35.84H14.08z"/></clipPath><filter id="a" width="94" height="65" x="-14" y="0" color-interpolation-filters="sRGB" filterUnits="userSpaceOnUse"><feFlood flood-opacity="0" result="BackgroundImageFix"/><feBlend in="SourceGraphic" in2="BackgroundImageFix" result="shape"/><feColorMatrix in="SourceAlpha" result="hardAlpha" values="0 0 0 0 0 0 0 0 0 0 0 0 0 0 0 0 0 0 127 0"/><feOffset dx="-14"/><feGaussianBlur stdDeviation="8.5"/><feComposite in2="hardAlpha" k2="-1" k3="1" operator="arithmetic"/><feColorMatrix values="0 0 0 0 0.104167 0 0 0 0 0.066116 0 0 0 0 0.030816 0 0 0 0.12 0"/><feBlend in2="shape" result="effect1_innerShadow_300_1207"/><feColorMatrix in="SourceAlpha" result="hardAlpha" values="0 0 0 0 0 0 0 0 0 0 0 0 0 0 0 0 0 0 127 0"/><feMorphology in="SourceAlpha" radius="2" result="effect2_innerShadow_300_1207"/><feOffset dx="16" dy="1"/><feGaussianBlur stdDeviation="15.5"/><feComposite in2="hardAlpha" k2="-1" k3="1" operator="arithmetic"/><feColorMatrix values="0 0 0 0 1 0 0 0 0 1 0 0 0 0 1 0 0 0 0.4 0"/><feBlend in2="effect1_innerShadow_300_1207" result="effect2_innerShadow_300_1207"/></filter></defs></svg>
